libs/ui/packages/crypto-icons/src/svg/SBERBANK.svg

<svg width="24" height="24" viewBox="0 0 24 24" fill="none">
<path fill-rule="evenodd" clip-rule="evenodd" d="M17.0108 5.151L17.7195 5.7945L8.7705 10.9035L4.4385 8.40975L4.8435 7.605L8.7705 9.83775L17.0108 5.15025V5.151ZM15.2093 4.125L16.1603 4.608L8.7705 8.832L5.3295 6.8805L5.916 6.177L8.7705 7.806L15.21 4.125H15.2093ZM18.3473 6.45825L18.873 7.1625L8.7705 12.9352L3.89175 10.1595L4.1145 9.2745L8.7705 11.9295L18.3473 6.45825ZM19.8045 9.05325C20.1015 9.885 20.25 10.7557 20.25 11.6677C20.25 12.5797 20.1015 13.4655 19.8045 14.3228L19.602 14.8665C19.1862 15.8418 18.5885 16.7291 17.841 17.481C17.0846 18.2237 16.1903 18.8115 15.2085 19.2113C14.1698 19.6537 13.0973 19.875 11.9903 19.875C10.8698 19.875 9.7965 19.6537 8.7705 19.2113C7.80038 18.8012 6.91487 18.2145 6.159 17.481C5.40287 16.7362 4.80403 15.8471 4.398 14.8665C3.9705 13.854 3.74925 12.7665 3.75 11.6677V11.1248L8.7705 13.9613L19.359 7.92675L19.8045 9.05325Z" fill="#48B254"/>
</svg>

<svg width="24" height="24" viewBox="0 0 24 24" fill="none"><path fill="#48b254" fill-rule="evenodd" d="m17.01 5.151.71.644-8.95 5.108L4.44 8.41l.404-.805 3.928 2.233zm-1.8-1.026.95.483-7.39 4.224L5.33 6.88l.586-.703 2.855 1.629zm3.137 2.333.526.704L8.77 12.936 3.893 10.16l.222-.885 4.657 2.656zm1.457 2.595q.447 1.248.446 2.615 0 1.369-.445 2.655l-.203.543a8.4 8.4 0 0 1-1.761 2.615 8.1 8.1 0 0 1-2.633 1.73 8.13 8.13 0 0 1-6.437 0 8.5 8.5 0 0 1-2.612-1.73 7.9 7.9 0 0 1-1.761-2.615 8.2 8.2 0 0 1-.648-3.198v-.543l5.02 2.836 10.59-6.034z" clip-rule="evenodd"/></svg>
